src/ButtonFocused.svg

<svg width="81" height="48" viewBox="0 0 81 48" fill="none" xmlns="http://www.w3.org/2000/svg">
<rect width="80.5718" height="48" fill="#565656"/>
<path d="M56.7104 18.1841H54.439V22.3442H54.4067C54.1508 21.939 53.7988 21.6348 53.3511 21.4321C52.9137 21.2188 52.4492 21.1118 51.9585 21.1118C51.3506 21.1118 50.8175 21.2347 50.3589 21.48C49.9002 21.7146 49.5159 22.0296 49.2065 22.4243L49.0981 22.5747C48.8519 22.9341 48.6591 23.3428 48.519 23.8003C48.3698 24.3122 48.2944 24.8453 48.2944 25.3999L48.3091 25.8276C48.3371 26.2517 48.407 26.6639 48.519 27.064L47.8823 27.2544V24.52C47.8823 24.008 47.8338 23.5434 47.7378 23.1274C47.6524 22.701 47.4978 22.344 47.2739 22.0562C47.2671 22.0471 47.2594 22.0387 47.2524 22.0298C47.391 21.7766 47.5468 21.533 47.7222 21.3013L47.7417 21.2759C48.2221 20.663 48.8192 20.1768 49.5112 19.8228V19.8237C50.2741 19.4227 51.1073 19.2505 51.9585 19.2505C52.167 19.2505 52.3736 19.2637 52.5776 19.2886V18.1841C52.5776 17.1563 53.4112 16.3228 54.439 16.3228H56.7104C57.7382 16.3228 58.5718 17.1563 58.5718 18.1841V29.6079C58.5718 30.6357 57.7382 31.4692 56.7104 31.4692H54.5503C54.3249 31.4692 54.1096 31.4265 53.9097 31.353C53.2995 31.5775 52.6575 31.6772 52.0063 31.6772C51.2574 31.6772 50.5224 31.5514 49.8345 31.2622L49.5425 31.1284C49.5325 31.1234 49.5221 31.118 49.5122 31.1128C48.899 30.7922 48.3607 30.3698 47.9136 29.8472L47.7271 29.6167C47.7248 29.6137 47.7224 29.6109 47.7202 29.6079H47.8823V27.2544L48.519 27.064C48.679 27.5972 48.9079 28.0719 49.2065 28.4878C49.5159 28.8931 49.9052 29.219 50.3745 29.4644C50.8438 29.699 51.3878 29.8159 52.0063 29.8159C52.5503 29.8159 53.0358 29.7198 53.4624 29.5278C53.8997 29.3252 54.2524 29.0002 54.519 28.5522H54.5503V29.6079H56.7104V18.1841ZM52.6577 25.4478C52.6577 25.2792 52.6458 25.1254 52.6245 24.9849L52.6001 24.8491L52.5981 24.8364C52.5869 24.7802 52.5739 24.7433 52.5649 24.7212L52.5493 24.688C52.5263 24.7399 52.4998 24.8077 52.478 24.8979C52.4457 25.0655 52.4272 25.2536 52.4272 25.4644C52.4273 25.6381 52.4476 25.8165 52.4907 26.0015C52.5102 26.0848 52.5362 26.1512 52.561 26.2065C52.5733 26.168 52.5881 26.1248 52.5981 26.0747C52.637 25.8803 52.6577 25.672 52.6577 25.4478ZM54.5122 25.7017C54.5002 25.9537 54.4704 26.1999 54.4224 26.4399L54.3667 26.6743C54.3027 26.9022 54.215 27.1123 54.103 27.3042C53.9537 27.5495 53.7506 27.7467 53.4946 27.896C53.2494 28.0453 52.9401 28.1196 52.5669 28.1196C52.215 28.1196 51.9107 28.0453 51.6548 27.896C51.4095 27.736 51.2014 27.5329 51.0308 27.2876C50.9108 27.0956 50.8147 26.8857 50.7427 26.6577L50.6782 26.4243C50.6222 26.1842 50.5877 25.9437 50.5737 25.7036L50.5669 25.4644C50.5669 25.123 50.5986 24.7971 50.6626 24.4878C50.7372 24.1679 50.8493 23.8854 50.9985 23.6401C51.1585 23.3949 51.3667 23.1977 51.6226 23.0483C51.8786 22.899 52.1936 22.8237 52.5669 22.8237C52.9401 22.8238 53.2494 22.899 53.4946 23.0483C53.7399 23.1977 53.9371 23.3949 54.0864 23.6401C54.2464 23.8748 54.3584 24.1522 54.4224 24.4722C54.4863 24.7814 54.519 25.1066 54.519 25.4478L54.5122 25.7017Z" fill="white"/>
<path d="M38.2612 21.3354C38.2615 20.3079 39.0949 19.4751 40.1226 19.4751H42.2817C42.5342 19.4751 42.7751 19.5256 42.9946 19.6167C43.5862 19.3793 44.2103 19.2505 44.8579 19.2505C45.5986 19.2505 46.356 19.3507 47.0444 19.644L47.0454 19.6431C47.0592 19.6486 47.0727 19.6549 47.0864 19.6606C47.0916 19.6629 47.0969 19.6652 47.1021 19.6675H47.1011C47.7325 19.9331 48.3038 20.3388 48.7427 20.9136H48.7437C48.7466 20.9174 48.7495 20.9214 48.7524 20.9253C48.7559 20.9299 48.7597 20.9343 48.7632 20.939H48.7622C49.0565 21.3238 49.2662 21.7472 49.4106 22.188C49.3396 22.2634 49.2711 22.342 49.2065 22.4243C48.908 22.8189 48.679 23.2778 48.519 23.8003C48.3698 24.3122 48.2944 24.8453 48.2944 25.3999C48.2944 25.9759 48.3697 26.5306 48.519 27.064C48.679 27.5972 48.9079 28.0719 49.2065 28.4878C49.3645 28.6947 49.544 28.8802 49.7437 29.0454V29.6079C49.7437 30.6357 48.9101 31.4692 47.8823 31.4692H45.6099C44.9224 31.4691 44.3236 31.095 44.0015 30.5405C43.6792 31.0947 43.0813 31.4692 42.394 31.4692H40.1226C39.0948 31.4692 38.2612 30.6357 38.2612 29.6079V29.0767C38.8506 28.6429 39.2938 27.9672 39.5903 27.0483H38.2612V26.0239H39.7349C39.7455 25.9493 39.7505 25.8799 39.7505 25.8159V25.5923C39.7505 25.0056 39.6653 24.44 39.4946 23.896C39.324 23.3521 39.0683 22.8774 38.7271 22.4722C38.588 22.2972 38.4323 22.1374 38.2612 21.9927V21.3354ZM40.1226 29.6079H42.394V25.272C42.394 24.4296 42.5329 23.8271 42.8101 23.4644C43.0873 23.0911 43.5354 22.9039 44.1538 22.9038C44.6977 22.9038 45.0772 23.0743 45.2905 23.4155C45.5039 23.7462 45.6099 24.2534 45.6099 24.936V29.6079H47.8823V24.52C47.8823 24.008 47.8338 23.5434 47.7378 23.1274C47.6524 22.701 47.4978 22.344 47.2739 22.0562C47.0499 21.7575 46.7409 21.5277 46.3462 21.3677C45.9622 21.197 45.4658 21.1118 44.8579 21.1118C44.3782 21.1119 43.9091 21.2239 43.4507 21.4478C42.9921 21.6611 42.6185 22.0079 42.3306 22.4878H42.2817V21.3354H40.1226V29.6079Z" fill="white"/>
<path d="M31.5034 27.3452C31.5036 27.3433 31.5042 27.3413 31.5044 27.3394L31.7827 27.2397L31.5034 27.3452ZM31.3013 25.9917C31.1519 25.725 30.9538 25.5061 30.7085 25.3354C30.4633 25.1543 30.1806 25.0104 29.8608 24.9038C29.7953 24.8812 29.7282 24.8625 29.6616 24.8413C29.6943 24.4716 29.7575 24.108 29.8501 23.7515H31.3013C31.2586 23.2397 31.1248 22.8184 30.9009 22.4878C30.8021 22.3297 30.6899 22.1874 30.5659 22.0591C30.7799 21.7119 31.0295 21.3876 31.3169 21.0903C31.8653 20.5124 32.5136 20.0625 33.2446 19.7427L33.2573 19.7378L33.5513 19.6206C34.2427 19.3679 34.9707 19.2505 35.7183 19.2505C36.6057 19.2505 37.4712 19.4154 38.2661 19.8013H38.2671C38.9994 20.1522 39.6366 20.6417 40.1489 21.2729H40.1499C40.167 21.2932 40.1829 21.315 40.1997 21.3354H40.1226V29.6079H40.3481C40.061 29.9811 39.7253 30.316 39.3335 30.5991L39.1274 30.7397C38.1116 31.3951 36.9449 31.6772 35.7183 31.6772C34.9796 31.6772 34.2599 31.5759 33.5767 31.3511L33.2856 31.2466C33.2756 31.2427 33.2654 31.2389 33.2554 31.2349C32.5042 30.9282 31.8351 30.484 31.2778 29.894C31.022 29.6232 30.7969 29.3301 30.6001 29.019C30.8342 28.8265 31.0309 28.5963 31.189 28.3276C31.3567 28.048 31.4613 27.7206 31.5034 27.3452L31.7827 27.2397C31.9853 27.773 32.2678 28.2318 32.6304 28.6157C32.993 28.9997 33.4359 29.2989 33.9585 29.5122C34.481 29.7148 35.0678 29.8159 35.7183 29.8159C36.6568 29.8159 37.4574 29.6028 38.1187 29.1763C38.7799 28.7497 39.2703 28.0401 39.5903 27.0483H37.5903C37.5156 27.3041 37.3132 27.5492 36.9829 27.7837C36.6522 28.0077 36.257 28.1196 35.7983 28.1196C35.1585 28.1196 34.6679 27.9541 34.3267 27.6235C33.9855 27.2929 33.7991 26.7598 33.7671 26.0239H39.7349C39.7455 25.9493 39.7505 25.8799 39.7505 25.8159V25.5923C39.7505 25.079 39.6858 24.5817 39.5552 24.1011L39.4946 23.896C39.324 23.3521 39.0683 22.8774 38.7271 22.4722C38.3964 22.0562 37.9744 21.7253 37.4624 21.48C36.9611 21.2347 36.3795 21.1118 35.7183 21.1118C35.0891 21.1119 34.5132 21.2238 33.9907 21.4478C33.4788 21.6717 33.0359 21.9809 32.6626 22.3755C32.2893 22.7594 32.001 23.2182 31.7983 23.7515L31.7271 23.9536C31.5719 24.4297 31.4946 24.9386 31.4946 25.48L31.4995 25.7173C31.5205 26.2656 31.6147 26.7731 31.7827 27.2397L31.5044 27.3394C31.5181 27.2154 31.5249 27.086 31.5249 26.9517C31.5249 26.5678 31.4506 26.2476 31.3013 25.9917ZM35.6548 22.8237C36.2094 22.8237 36.6205 22.9733 36.8872 23.272C37.1643 23.5706 37.3558 24.0079 37.4624 24.5835H33.7671C33.7778 24.4236 33.8095 24.242 33.8628 24.0396C33.9268 23.8372 34.0281 23.6455 34.1665 23.4644C34.3158 23.2831 34.5081 23.1334 34.7427 23.0161C34.9773 22.8881 35.2815 22.8237 35.6548 22.8237Z" fill="white"/>
<path d="M22.1918 23.7681C22.1918 23.0114 22.3339 22.2167 22.7563 21.5054L22.7787 21.4692L22.9252 21.2505C23.2753 20.7588 23.7206 20.3515 24.2533 20.0474C24.8015 19.7244 25.3969 19.5158 26.0199 19.4067V19.4077C26.5561 19.3035 27.1009 19.2505 27.6527 19.2505C28.2194 19.2505 28.7771 19.3046 29.3227 19.4165H29.3217C29.9344 19.5399 30.5204 19.7566 31.057 20.0854L31.2719 20.2251C31.7414 20.5524 32.1314 20.9647 32.4408 21.4438H32.4418C32.4473 21.452 32.452 21.461 32.4574 21.4692C32.4644 21.4801 32.4721 21.4905 32.4789 21.5015H32.477C32.6234 21.7261 32.7437 21.9598 32.8393 22.2007C32.7789 22.2571 32.7197 22.3151 32.6625 22.3755C32.2892 22.7594 32.0009 23.2182 31.7983 23.7515C31.5956 24.2848 31.4945 24.8613 31.4945 25.48C31.4945 26.1199 31.5907 26.7065 31.7826 27.2397C31.9852 27.773 32.2677 28.2318 32.6303 28.6157C32.7364 28.7281 32.8503 28.8324 32.9701 28.9302C32.9163 29.0449 32.8585 29.1588 32.7924 29.27L32.7934 29.271C32.4773 29.8083 32.0631 30.2658 31.5609 30.6284L31.3402 30.7778C30.7791 31.1349 30.1614 31.3647 29.5141 31.4907L29.515 31.4917C29.5061 31.4936 29.4967 31.4947 29.4877 31.4966C29.4802 31.498 29.4728 31.5001 29.4652 31.5015L29.4643 31.5005C28.9012 31.6175 28.3284 31.6772 27.7484 31.6772C27.2948 31.6772 26.8456 31.6426 26.4018 31.5737L25.9594 31.4937C25.3918 31.3748 24.8493 31.1806 24.3451 30.9009L24.1313 30.7749L24.1098 30.7622C23.5971 30.436 23.1634 30.022 22.8119 29.5356L22.6664 29.3228L22.6332 29.269C22.2099 28.5635 22.0315 27.7749 22.0014 26.9917C21.9819 26.4861 22.1691 25.994 22.5199 25.6294C22.5514 25.5967 22.5851 25.5667 22.6186 25.5366C22.3101 24.9655 22.1918 24.354 22.1918 23.7681ZM24.0668 24.0298C24.0948 24.2818 24.1648 24.5038 24.2768 24.6958L24.3979 24.8726C24.5278 25.0426 24.6846 25.1918 24.8686 25.3198C25.1139 25.4798 25.3913 25.6136 25.7006 25.7202C26.0206 25.8162 26.3465 25.9014 26.6772 25.9761C27.4876 26.1467 28.1169 26.3172 28.5649 26.4878L28.726 26.5562C29.0772 26.7242 29.2533 26.9577 29.2533 27.2563L29.2436 27.4019C29.2256 27.5419 29.1808 27.6641 29.1088 27.7681C29.0128 27.896 28.8899 28.0031 28.7406 28.0884C28.6021 28.1629 28.4422 28.2215 28.2611 28.2642C28.0905 28.2961 27.925 28.312 27.765 28.312C27.541 28.312 27.3221 28.2853 27.1088 28.2319C26.9062 28.1786 26.7248 28.0984 26.5649 27.9917C26.4049 27.8744 26.2711 27.7307 26.1645 27.5601C26.0685 27.3787 26.0209 27.1647 26.0209 26.9194H23.8608C23.8821 27.4741 24.0049 27.9387 24.2289 28.312C24.4636 28.6746 24.7569 28.9679 25.1088 29.1919C25.4715 29.4159 25.8826 29.5764 26.3412 29.6724C26.7996 29.7683 27.2687 29.8159 27.7484 29.8159C28.2176 29.8159 28.6766 29.7683 29.1244 29.6724C29.5258 29.5977 29.8868 29.4694 30.2065 29.2886L30.3412 29.2075C30.693 28.9836 30.9756 28.6902 31.1889 28.3276C31.3848 28.001 31.4954 27.6091 31.5199 27.1519L31.5248 26.9517C31.5248 26.5678 31.4505 26.2476 31.3012 25.9917C31.1519 25.725 30.9537 25.5061 30.7084 25.3354C30.4632 25.1543 30.1805 25.0104 29.8608 24.9038C29.5515 24.7972 29.2314 24.707 28.9008 24.6323C28.5808 24.5577 28.2658 24.4883 27.9565 24.4243C27.6473 24.3603 27.3697 24.2909 27.1244 24.2163C26.9487 24.1524 26.7972 24.0757 26.6693 23.9878L26.5492 23.896C26.3999 23.768 26.3246 23.6026 26.3246 23.3999C26.3246 23.2292 26.3672 23.0955 26.4525 22.9995C26.5379 22.8929 26.6399 22.8136 26.7572 22.7603C26.8852 22.707 27.024 22.6742 27.1733 22.6636C27.3224 22.6423 27.4614 22.6323 27.5893 22.6323C27.9944 22.6324 28.3464 22.7117 28.6449 22.8716C28.9435 23.0209 29.1089 23.3144 29.141 23.7515H31.3012C31.2585 23.2397 31.1247 22.8184 30.9008 22.4878C30.6876 22.1467 30.4157 21.875 30.0854 21.6724C29.7547 21.4697 29.3753 21.3251 28.9486 21.2397C28.5327 21.1544 28.1006 21.1118 27.6527 21.1118C27.2049 21.1118 26.7677 21.1545 26.3412 21.2397C25.9146 21.3144 25.5302 21.4531 25.1889 21.6558C24.8476 21.8477 24.5702 22.1143 24.3568 22.4556C24.1542 22.7969 24.0531 23.2347 24.0531 23.7681L24.0668 24.0298Z" fill="white"/>
</svg>

<svg xmlns="http://www.w3.org/2000/svg" width="81" height="48" fill="none"><path fill="#565656" d="M0 0h80.572v48H0z"/><path fill="#fff" d="M56.71 18.184H54.44v4.16h-.032a2.38 2.38 0 0 0-1.056-.912 3.138 3.138 0 0 0-1.392-.32c-.608 0-1.142.123-1.6.368-.459.235-.843.55-1.153.944l-.108.15c-.246.36-.439.769-.579 1.226a5.687 5.687 0 0 0-.225 1.6l.015.428c.028.424.098.836.21 1.236l-.637.19V24.52c0-.512-.048-.977-.144-1.393-.086-.426-.24-.783-.464-1.07l-.022-.027a5.89 5.89 0 0 1 .47-.729l.02-.025a5.29 5.29 0 0 1 1.77-1.453c.762-.4 1.595-.573 2.447-.573.208 0 .415.014.619.039v-1.105c0-1.028.833-1.861 1.861-1.861h2.271c1.028 0 1.862.833 1.862 1.861v11.424a1.862 1.862 0 0 1-1.862 1.861h-2.16c-.225 0-.44-.043-.64-.116a5.488 5.488 0 0 1-1.904.324 5.57 5.57 0 0 1-2.172-.415l-.292-.134-.03-.015a5.349 5.349 0 0 1-1.598-1.266l-.187-.23-.007-.01h.162v-2.353l.637-.19a4.77 4.77 0 0 0 .688 1.424c.309.405.698.731 1.167.976.47.235 1.014.352 1.632.352.544 0 1.03-.096 1.456-.288.438-.203.79-.528 1.057-.976h.031v1.056h2.16V18.184Zm-4.052 7.264c0-.169-.012-.323-.034-.463l-.024-.136-.002-.013a.627.627 0 0 0-.033-.115l-.016-.033c-.023.052-.05.12-.071.21-.032.168-.05.356-.05.566 0 .174.02.353.063.538.02.083.045.15.07.204.012-.038.027-.081.037-.131.039-.195.06-.403.06-.627Zm1.854.254a4.964 4.964 0 0 1-.09.738l-.055.234a2.682 2.682 0 0 1-.264.63c-.15.245-.352.443-.608.592-.246.15-.555.224-.928.224a1.78 1.78 0 0 1-.912-.224 2.257 2.257 0 0 1-.624-.608 2.738 2.738 0 0 1-.288-.63l-.065-.234a4.26 4.26 0 0 1-.104-.72l-.007-.24c0-.341.032-.667.096-.976.074-.32.186-.603.336-.848.16-.245.368-.442.624-.592.256-.149.57-.224.944-.224.373 0 .682.075.928.224.245.15.442.347.591.592.16.235.272.512.336.832.064.31.097.635.097.976l-.007.254Z"/><path fill="#fff" d="M38.261 21.335c0-1.027.834-1.86 1.862-1.86h2.159c.252 0 .493.05.713.142a4.977 4.977 0 0 1 1.863-.367c.74 0 1.498.1 2.186.394h.001c.014.005.028.01.041.017l.016.006a3.971 3.971 0 0 1 1.64 1.247h.002l.008.011.011.014c.294.385.503.808.648 1.249-.071.075-.14.154-.205.236a4.387 4.387 0 0 0-.687 1.376 5.687 5.687 0 0 0-.225 1.6c0 .576.076 1.13.225 1.664a4.77 4.77 0 0 0 .688 1.424 3.4 3.4 0 0 0 .537.557v.563a1.862 1.862 0 0 1-1.862 1.861H45.61a1.859 1.859 0 0 1-1.608-.928c-.323.554-.92.928-1.608.928h-2.271a1.862 1.862 0 0 1-1.862-1.861v-.531c.59-.434 1.033-1.11 1.33-2.029h-1.33v-1.024h1.474c.01-.075.016-.144.016-.208v-.224c0-.586-.086-1.152-.256-1.696a4.077 4.077 0 0 0-.768-1.424 3.39 3.39 0 0 0-.466-.48v-.657Zm1.862 8.273h2.271v-4.336c0-.842.139-1.445.416-1.808.277-.373.725-.56 1.344-.56.544 0 .923.17 1.136.512.214.33.32.837.32 1.52v4.672h2.272V24.52c0-.512-.048-.977-.144-1.393-.086-.426-.24-.783-.464-1.07a2.125 2.125 0 0 0-.928-.69c-.384-.17-.88-.255-1.488-.255-.48 0-.949.112-1.407.336-.459.213-.833.56-1.12 1.04h-.05v-1.153h-2.158v8.273Z"/><path fill="#fff" d="m31.503 27.345.001-.006.279-.1-.28.106Zm-.202-1.353a1.95 1.95 0 0 0-.592-.657 3.026 3.026 0 0 0-.848-.431c-.066-.023-.133-.041-.2-.063.033-.37.096-.733.19-1.09h1.45c-.042-.511-.176-.933-.4-1.263a2.59 2.59 0 0 0-.335-.429 5.67 5.67 0 0 1 .75-.969 5.892 5.892 0 0 1 1.929-1.347l.012-.005.294-.117a6.279 6.279 0 0 1 2.167-.37c.888 0 1.753.164 2.548.55h.001c.732.351 1.37.84 1.882 1.472.018.02.034.042.05.062h-.076v8.273h.225a4.899 4.899 0 0 1-1.014.991l-.207.14c-1.015.656-2.182.938-3.409.938a6.827 6.827 0 0 1-2.141-.326l-.291-.104-.03-.012a5.608 5.608 0 0 1-1.978-1.341 5.738 5.738 0 0 1-.678-.875c.234-.192.43-.423.589-.691.168-.28.272-.607.314-.983l.28-.105c.202.533.485.992.847 1.376.363.384.806.683 1.328.896.523.203 1.11.304 1.76.304.939 0 1.74-.213 2.4-.64.662-.426 1.152-1.136 1.472-2.128h-2c-.074.256-.277.501-.607.736-.33.224-.726.336-1.185.336-.64 0-1.13-.166-1.471-.497-.341-.33-.528-.863-.56-1.6h5.968c.01-.074.016-.143.016-.207v-.224c0-.513-.065-1.01-.196-1.49l-.06-.206a4.077 4.077 0 0 0-.768-1.424 3.543 3.543 0 0 0-1.265-.992c-.5-.245-1.083-.368-1.744-.368-.629 0-1.205.112-1.727.336a4.03 4.03 0 0 0-1.328.927 3.971 3.971 0 0 0-.865 1.377l-.07.202a4.896 4.896 0 0 0-.233 1.526l.005.237a5.04 5.04 0 0 0 .283 1.523l-.279.1c.014-.125.02-.254.02-.388 0-.384-.073-.704-.223-.96Zm4.354-3.168c.554 0 .965.15 1.232.448.277.299.469.736.575 1.312h-3.695c.01-.16.042-.342.096-.544.064-.203.165-.395.303-.576.15-.18.342-.33.577-.448.234-.128.538-.192.912-.192Z"/><path fill="#fff" d="M22.192 23.768c0-.757.142-1.551.564-2.263l.023-.036.146-.219a4.14 4.14 0 0 1 1.328-1.203 5.238 5.238 0 0 1 1.767-.64 8.544 8.544 0 0 1 3.303.01h-.001c.612.123 1.198.34 1.735.668l.215.14c.47.327.86.74 1.169 1.219l.016.025.022.032h-.002c.146.225.267.459.362.7a3.97 3.97 0 0 0-1.041 1.55 4.826 4.826 0 0 0-.303 1.729c0 .64.096 1.226.288 1.76.202.533.485.992.847 1.376.106.112.22.216.34.314a3.917 3.917 0 0 1-.178.34l.001.001c-.316.537-.73.995-1.232 1.357l-.22.15a5.24 5.24 0 0 1-1.827.713h.001l-.027.006-.023.005V31.5a8.42 8.42 0 0 1-1.717.177c-.453 0-.902-.034-1.346-.103l-.443-.08a5.737 5.737 0 0 1-1.614-.593l-.214-.126-.021-.013a4.722 4.722 0 0 1-1.298-1.226l-.146-.213-.033-.054c-.423-.705-.601-1.494-.632-2.277-.02-.506.168-.998.519-1.363.031-.032.065-.062.099-.092a3.692 3.692 0 0 1-.427-1.769Zm1.875.262c.028.252.098.474.21.666l.12.177c.13.17.288.319.472.447.245.16.522.294.832.4.32.096.645.181.976.256.81.17 1.44.341 1.888.512l.161.068c.351.168.527.402.527.7l-.01.146a.815.815 0 0 1-.134.366 1.195 1.195 0 0 1-.368.32 1.958 1.958 0 0 1-.48.176 2.699 2.699 0 0 1-1.152-.032 1.794 1.794 0 0 1-.544-.24 1.546 1.546 0 0 1-.4-.432 1.352 1.352 0 0 1-.144-.64h-2.16c.021.554.144 1.019.368 1.392.235.363.528.656.88.88.362.224.774.384 1.232.48a6.854 6.854 0 0 0 2.783 0 3.473 3.473 0 0 0 1.082-.383l.135-.082c.352-.223.635-.517.848-.88.196-.326.306-.718.33-1.175l.006-.2c0-.384-.074-.704-.224-.96a1.948 1.948 0 0 0-.593-.657 3.027 3.027 0 0 0-.847-.431 9.098 9.098 0 0 0-.96-.272c-.32-.074-.635-.144-.945-.208a9.491 9.491 0 0 1-.832-.208 2.019 2.019 0 0 1-.455-.228l-.12-.092a.624.624 0 0 1-.224-.496c0-.17.042-.304.128-.4a.823.823 0 0 1 .304-.24c.128-.053.267-.086.416-.096.15-.022.288-.032.416-.032.405 0 .757.08 1.056.24.299.149.464.442.496.88h2.16c-.042-.512-.176-.934-.4-1.264a2.486 2.486 0 0 0-.816-.816 3.454 3.454 0 0 0-1.136-.432 6.68 6.68 0 0 0-2.607 0 3.376 3.376 0 0 0-1.153.416 2.298 2.298 0 0 0-.832.8c-.203.34-.304.779-.304 1.312l.014.262Z"/></svg>
